X: 4
T:Scotland the Brave
M:4/4
L:1/16
Q:260
C:Trad.
R:Marcha
A:Escocia
N:Repertorio básico
K:D
A4 |: D4{A} D3E F2D2 F2A2 | d4{a} d4{a} d2A2 F2D2 | G4 B3G F2A2
F2D2 |1 E4 A4 {B} A4 {B}
AGFE :|2 E4 D3E D4 
|
F2A2 
| d4{a} d3c d2A2F2D2 | d4{a} d3c d2A2F2D2 | d4{a} d3c B4 d2
c2 
| B2 d2c2 B2 A2
G2F2E2 
|
D4{A} D3E F2D2 F2A2 | d4{a} d3c d2A2F2D2 | G4 B3G F2A2 F2D2 | E4
D3E D4 
||

